svgs/light/square-arrow-up-left.svg

<svg xmlns="http://www.w3.org/2000/svg" viewBox="0 0 448 512"><!-- Font Awesome Pro 6.0.0-alpha2 by @fontawesome - https://fontawesome.com License - https://fontawesome.com/license (Commercial License) --><path d="M384 32H64C28.654 32 0 60.656 0 96V416C0 451.344 28.654 480 64 480H384C419.346 480 448 451.344 448 416V96C448 60.656 419.346 32 384 32ZM416 416C416 433.645 401.645 448 384 448H64C46.355 448 32 433.645 32 416V96C32 78.355 46.355 64 64 64H384C401.645 64 416 78.355 416 96V416ZM182.898 192.273L272.047 192C280.891 191.969 288.031 184.781 288 175.969C287.969 167.125 280.812 160 272 160H271.953L143.953 160.375C135.141 160.406 128 167.562 128 176.375V304C128 312.844 135.156 320 144 320S160 312.844 160 304V214.625L292.688 347.312C295.812 350.438 299.906 352 304 352S312.188 350.438 315.312 347.312C321.562 341.062 321.562 330.937 315.312 324.688L182.898 192.273Z"/></svg>

<svg xmlns="http://www.w3.org/2000/svg" viewBox="0 0 448 512"><!--! Font Awesome Pro 6.3.0 by @fontawesome - https://fontawesome.com License - https://fontawesome.com/license (Commercial License) Copyright 2023 Fonticons, Inc. --><path d="M384 32H64C28.65 32 0 60.66 0 96v320c0 35.34 28.65 64 64 64h320c35.35 0 64-28.66 64-64V96C448 60.66 419.3 32 384 32zM416 416c0 17.64-14.36 32-32 32H64c-17.64 0-32-14.36-32-32V96c0-17.64 14.36-32 32-32h320c17.64 0 32 14.36 32 32V416zM182.9 192.3L272 192C280.9 191.1 288 184.8 288 175.1C287.1 167.1 280.8 160 272 160L143.1 160.4C135.1 160.4 128 167.6 128 176.4V304C128 312.8 135.2 320 144 320S160 312.8 160 304V214.6l132.7 132.7C295.8 350.4 299.9 352 304 352s8.188-1.562 11.31-4.688c6.25-6.25 6.25-16.38 0-22.62L182.9 192.3z"/></svg>
